X:3091
T:John Stenson's \#2
O:england
S:sessions in Madison, Wisconsin and Berlin, Germany
N:transcribed by Alan Ng
D:Kevin Burke, If the Cap Fits
R:reel
E:10
M:C|
K:AMix
ABcA B2cB|ABcA BE~E2|ABcA B2ed|cded cABA|\
ABcA B2cB|ABcA BAFA|\
E:12
d2dc dfed|cdBc A3d::\
edcd edcd|e2cd BAFA|edcd edcd|ABcA B3d|\
edcd edcd|e2cd BAFA|d2dc dfed|cdBc A3B|]


